svgs/thin/album-collection-circle-plus.svg

<svg xmlns="http://www.w3.org/2000/svg" viewBox="0 0 640 512"><!--! Font Awesome Pro 6.4.0 by @fontawesome - https://fontawesome.com License - https://fontawesome.com/license (Commercial License) Copyright 2023 Fonticons, Inc. --><path d="M64 0H448c17.7 0 32 14.3 32 32v8c0 4.4-3.6 8-8 8s-8-3.6-8-8V32c0-8.8-7.2-16-16-16H64c-8.8 0-16 7.2-16 16v8c0 4.4-3.6 8-8 8s-8-3.6-8-8V32C32 14.3 46.3 0 64 0zM16 112c0-17.7 14.3-32 32-32H464c17.7 0 32 14.3 32 32v8c0 4.4-3.6 8-8 8s-8-3.6-8-8v-8c0-8.8-7.2-16-16-16H48c-8.8 0-16 7.2-16 16v8c0 4.4-3.6 8-8 8s-8-3.6-8-8v-8zM4.2 212.6C1.5 184.4 23.7 160 52 160H460c21.2 0 38.9 13.6 45.4 32.2c-3.1-.2-6.2-.2-9.4-.2c-2.7 0-5.5 .1-8.2 .2C482.4 182.6 472 176 460 176H52c-18.9 0-33.6 16.2-31.9 35L44.5 467c1.6 16.4 15.4 29 31.9 29H375.2c6.1 5.8 12.7 11.1 19.6 16H76.4c-24.7 0-45.4-18.8-47.8-43.4L4.2 212.6zM256 208c45.1 0 86.3 12.7 117.4 33.7c-3.9 3.8-7.6 7.7-11.1 11.8C334.3 235.3 297.2 224 256 224c-45.5 0-86 13.8-114.9 35.5S96 309.7 96 340s16.3 58.9 45.1 80.5S210.5 456 256 456c29.2 0 56.3-5.7 79.6-15.5c2.2 4.9 4.6 9.7 7.3 14.3C317.2 465.8 287.6 472 256 472c-97.2 0-176-59.1-176-132s78.8-132 176-132zm25.8 160.6c-7.3 4.9-16.5 7.4-25.8 7.4s-18.5-2.5-25.8-7.4C223 363.8 216 355.4 216 344s7-19.8 14.2-24.6c7.3-4.9 16.5-7.4 25.8-7.4s18.5 2.5 25.8 7.4C289 324.2 296 332.6 296 344s-7 19.8-14.2 24.6zM256 360c13.3 0 24-7.2 24-16s-10.7-16-24-16s-24 7.2-24 16s10.7 16 24 16zm368 8a128 128 0 1 0 -256 0 128 128 0 1 0 256 0zm-272 0a144 144 0 1 1 288 0 144 144 0 1 1 -288 0zm152-72v64h64c4.4 0 8 3.6 8 8s-3.6 8-8 8H504v64c0 4.4-3.6 8-8 8s-8-3.6-8-8V376H424c-4.4 0-8-3.6-8-8s3.6-8 8-8h64V296c0-4.4 3.6-8 8-8s8 3.6 8 8z"/></svg>

<svg xmlns="http://www.w3.org/2000/svg" viewBox="0 0 640 512"><!--! Font Awesome Pro 6.3.0 by @fontawesome - https://fontawesome.com License - https://fontawesome.com/license (Commercial License) Copyright 2023 Fonticons, Inc. --><path d="M448 0C465.7 0 480 14.33 480 32V40C480 44.42 476.4 48 472 48C467.6 48 464 44.42 464 40V32C464 23.16 456.8 16 448 16H64C55.16 16 48 23.16 48 32V40C48 44.42 44.42 48 40 48C35.58 48 32 44.42 32 40V32C32 14.33 46.33 0 64 0H448zM16 112C16 94.33 30.33 80 48 80H464C481.7 80 496 94.33 496 112V120C496 124.4 492.4 128 488 128C483.6 128 480 124.4 480 120V112C480 103.2 472.8 96 464 96H48C39.16 96 32 103.2 32 112V120C32 124.4 28.42 128 24 128C19.58 128 16 124.4 16 120V112zM4.207 212.6C1.523 184.4 23.68 160 51.99 160H460C481.2 160 498.9 173.6 505.4 192.2C502.3 192.1 499.1 192 496 192C493.3 192 490.5 192.1 487.8 192.2C482.4 182.6 472 176 460 176H51.99C33.12 176 18.35 192.2 20.13 211L44.52 467C46.08 483.5 59.87 496 76.37 496H375.2C381.3 501.8 387.9 507.1 394.8 512H76.37C51.62 512 30.93 493.2 28.59 468.6L4.207 212.6zM256 208C301.1 208 342.3 220.7 373.4 241.7C369.6 245.5 365.8 249.4 362.3 253.5C334.3 235.3 297.2 224 256 224C210.5 224 169.1 237.8 141.1 259.5C112.3 281.1 96 309.7 96 340C96 370.3 112.3 398.9 141.1 420.5C169.1 442.2 210.5 456 256 456C285.2 456 312.3 450.3 335.6 440.5C337.8 445.4 340.2 450.2 342.9 454.8C317.2 465.8 287.6 472 256 472C158.8 472 80 412.9 80 340C80 267.1 158.8 207.1 256 207.1V208zM281.8 368.6C274.5 373.5 265.3 376 256 376C246.7 376 237.5 373.5 230.2 368.6C222.1 363.8 216 355.4 216 344C216 332.6 222.1 324.2 230.2 319.4C237.5 314.5 246.7 312 256 312C265.3 312 274.5 314.5 281.8 319.4C289 324.2 296 332.6 296 344C296 355.4 289 363.8 281.8 368.6zM256 360C269.3 360 280 352.8 280 344C280 335.2 269.3 328 256 328C242.7 328 232 335.2 232 344C232 352.8 242.7 360 256 360zM504 359.1H568C572.4 359.1 576 363.6 576 367.1C576 372.4 572.4 375.1 568 375.1H504V439.1C504 444.4 500.4 447.1 496 447.1C491.6 447.1 488 444.4 488 439.1V375.1H424C419.6 375.1 416 372.4 416 367.1C416 363.6 419.6 359.1 424 359.1H488V295.1C488 291.6 491.6 287.1 496 287.1C500.4 287.1 504 291.6 504 295.1V359.1zM640 368C640 447.5 575.5 512 496 512C416.5 512 352 447.5 352 368C352 288.5 416.5 224 496 224C575.5 224 640 288.5 640 368zM496 240C425.3 240 368 297.3 368 368C368 438.7 425.3 496 496 496C566.7 496 624 438.7 624 368C624 297.3 566.7 240 496 240z"/></svg>
